style-guide/assets/wds-icons-fandom-tiny.svg

<svg xmlns="http://www.w3.org/2000/svg" xmlns:xlink="http://www.w3.org/1999/xlink" width="12" height="12" viewBox="0 0 12 12">
  <defs>
    <path id="fandom-a" d="M11.0954727,5.65839715 C11.0954727,5.75816987 11.0557964,5.85389361 10.9850892,5.92478878 L6.34404148,10.5825551 C6.26576953,10.6599439 6.18672568,10.6947039 6.08822962,10.6947039 C5.98680029,10.6947039 5.89710404,10.6568117 5.82153379,10.5820203 L5.49424282,10.2742987 C5.43534588,10.2188354 5.43387925,10.1263967 5.49100078,10.0691764 L10.8471484,4.70413909 C10.9383113,4.6127699 11.0954727,4.67671306 11.0954727,4.80505775 L11.0954727,5.65839715 Z M5.14371727,9.17076352 L4.87825651,9.40820119 C4.79157071,9.48574278 4.65887893,9.48283974 4.57582112,9.40155477 L1.04362593,5.94923538 C0.9546244,5.86222074 0.904527268,5.7435019 0.904527268,5.61974095 L0.904527268,4.97473248 C0.904527268,4.74241331 1.18766484,4.62529878 1.35478393,4.78855629 L5.10404096,8.45371395 C5.16926758,8.51826828 5.27934233,8.6512731 5.27934233,8.81200955 C5.27934233,8.91445611 5.25579899,9.05976064 5.14371727,9.17076352 L5.14371727,9.17076352 Z M1.98698041,2.48958201 L3.20173938,1.28734368 C3.25839777,1.23126927 3.35025537,1.23126927 3.40691376,1.28734368 L7.47597422,5.31438754 C7.91164173,5.74556458 7.91164173,6.44466117 7.47597422,6.87583821 L6.2616784,8.07754178 C6.2050972,8.13361618 6.1131624,8.13361618 6.05650401,8.07754178 L1.98752075,4.05034513 C1.77802365,3.84308373 1.66269989,3.56576752 1.66269989,3.26965799 C1.66269989,2.97393043 1.77786926,2.69684341 1.98698041,2.48958201 L1.98698041,2.48958201 Z M6.8017085,3.1780596 L8.07142765,1.92150397 C8.31913443,1.67673231 8.66363905,1.56145127 9.02041709,1.61026809 C9.27067118,1.64441695 9.49799946,1.77314361 9.67662005,1.94984675 L10.9622406,3.22229269 C11.018899,3.27844349 11.018899,3.36935431 10.9622406,3.42542872 L9.00698581,5.36060691 C8.95025023,5.41668131 8.85846981,5.41668131 8.80173423,5.36060691 L6.8017085,3.38111924 C6.74505011,3.32512123 6.74505011,3.23421041 6.8017085,3.1780596 L6.8017085,3.1780596 Z M11.8507893,2.93947599 L9.01895046,0.0885431535 C8.90200569,-0.0291825419 8.71041696,-0.0295645202 8.59300904,0.0877028014 L6.34712913,2.33190139 C6.17368035,2.50524312 5.89085155,2.50593068 5.71639928,2.3335821 L3.46982465,0.11283697 C3.3535746,-0.00206208647 3.16538229,-0.00274964731 3.04836033,0.111461848 L0.155077256,2.93267678 C0.0558092861,3.02947007 0,3.16148175 0,3.2993759 L0,5.97123733 C0,6.10775636 0.0548057996,6.23877489 0.152375561,6.3352626 L5.79104324,11.9132909 C5.90791082,12.0289539 6.09733819,12.0288775 6.21420577,11.9132145 L11.8477788,6.33510981 C11.9451942,6.2386221 12,6.10767996 12,5.97123733 L12,3.30036904 C12,3.16537793 11.9463521,3.03573451 11.8507893,2.93947599 L11.8507893,2.93947599 Z"/>
  </defs>
  <use fill-rule="evenodd" xlink:href="#fandom-a"/>
</svg>

<svg xmlns="http://www.w3.org/2000/svg" xmlns:xlink="http://www.w3.org/1999/xlink" viewBox="0 0 12 12">
  <defs>
    <path id="fandom-a" d="M11.095 5.658c0 .1-.04.196-.11.267l-4.641 4.658a.344.344 0 0 1-.256.112.369.369 0 0 1-.266-.113l-.328-.308a.143.143 0 0 1-.003-.205l5.356-5.365c.091-.091.248-.027.248.101v.853zM5.144 9.171l-.266.237a.222.222 0 0 1-.302-.006L1.044 5.949a.46.46 0 0 1-.14-.33v-.644c0-.233.284-.35.45-.186l3.75 3.665c.065.064.175.197.175.358a.497.497 0 0 1-.135.359zM1.987 2.49l1.215-1.203a.146.146 0 0 1 .205 0l4.069 4.027c.436.432.436 1.13 0 1.562L6.262 8.078a.146.146 0 0 1-.205 0L1.987 4.05a1.09 1.09 0 0 1-.324-.78c0-.296.115-.573.324-.78zm4.815.688l1.27-1.256a1.121 1.121 0 0 1 1.605.028l1.285 1.272a.143.143 0 0 1 0 .203L9.007 5.361a.146.146 0 0 1-.205 0l-2-1.98a.143.143 0 0 1 0-.203zm5.049-.239L9.019.09a.301.301 0 0 0-.426-.001L6.347 2.332a.448.448 0 0 1-.63.002L3.47.113A.301.301 0 0 0 3.048.11L.155 2.933A.512.512 0 0 0 0 3.299v2.672c0 .137.055.268.152.364l5.639 5.578a.301.301 0 0 0 .423 0l5.634-5.578A.512.512 0 0 0 12 5.971v-2.67a.512.512 0 0 0-.15-.362z"/>
  </defs>
  <use fill-rule="evenodd" xlink:href="#fandom-a"/>
</svg>
